X: 2
T:Morris Jig, Much Wenlock
M:4/4
L:1/8
Q:1/4=150
R:Hornpipe
A:Much Wenlock
P:A8
K:G
P:A
D|GFGF D2G2|AGFE D2D2|c2A2 B2G2|AGFE D2D2|
  GFGF D2G2|AGFE D4  |cBAG FDEF|G2B2 G3||
